build/img/open-present-box (2).svg

<svg xmlns="http://www.w3.org/2000/svg" viewBox="0 0 23.992 23.992"><path d="M23.992 10.512v12.014H7.731v-6.275l4.734-5.738h2.079v11.604h2.751V10.512h6.697zM8.453 14.574l-4.352 5.243-2.923-2.431 4.017-4.838c-.61.152-1.388.182-2.213.045-1.781-.29-3.111-1.219-2.972-2.078a.855.855 0 0 1 .19-.405c.49-.588 1.814-.864 3.29-.625.496.081.951.216 1.356.382a6.38 6.38 0 0 1-.625-1.263c-.507-1.409-.48-2.76.009-3.35a.835.835 0 0 1 .363-.261c.818-.296 1.978.84 2.592 2.537.283.787.4 1.554.363 2.182l4.017-4.838 2.925 2.428-4.278 5.151L7.254 10l-1.758 2.119 2.957 2.455zM5.064 8.299c.141.386.32.75.535 1.081l.552.854.372.045c.154-.246.277-1.177-.18-2.443-.474-1.308-1.182-1.918-1.44-1.986-.174.253-.296 1.184.161 2.449zm.492 3.128l-.119-.353-.928-.378a5.302 5.302 0 0 0-1.162-.326c-1.327-.218-2.221.076-2.439.292.115.242.846.824 2.219 1.049 1.309.213 2.196-.068 2.429-.284zm14.653-3.511a.656.656 0 0 1 .52-.262l.055.002c.216.024.364.095.459.221.094.123.124.291.089.5-.083.507-1.016 1.326-1.057 1.359-.017.015-.039.022-.062.022s-.045-.007-.062-.021c-.041-.034-.982-.852-1.066-1.36-.033-.209-.003-.377.091-.5.095-.126.246-.198.462-.221a.654.654 0 0 1 .571.26zm.469-.079c.484.073.522.618.522.618.062-.702-.522-.618-.522-.618zm-5.045.5c.083-.109.219-.172.407-.192l.047-.002a.58.58 0 0 1 .46.229.577.577 0 0 1 .46-.229l.046.002c.191.02.324.083.408.192.084.109.109.259.08.444-.074.449-.9 1.172-.934 1.201a.094.094 0 0 1-.059.02.087.087 0 0 1-.056-.018c-.034-.031-.868-.754-.941-1.203-.03-.185-.003-.335.082-.444zm1.328-.033c.43.065.461.549.461.549.055-.626-.461-.549-.461-.549zm-.333-3.982c-.058-.347-.007-.63.149-.835.158-.207.412-.328.77-.365a1.1 1.1 0 0 1 .958.429 1.1 1.1 0 0 1 .958-.429c.357.037.61.158.768.365.158.205.209.488.151.835-.14.852-1.698 2.213-1.765 2.271a.165.165 0 0 1-.107.04.164.164 0 0 1-.105-.04c-.067-.058-1.637-1.419-1.777-2.271zm2.658-.898c.81.121.868 1.031.868 1.031.104-1.173-.867-1.031-.868-1.031zm-4.989-.357c0-.037-.029-.067-.066-.067s-.067.03-.067.067c0 .037.03.066.067.066s.066-.029.066-.066zm1.437-.024h-1.332v.046h1.332v-.046zm-1.526 1.484h.045V3.195h-.045v1.332zm.045-2.982h-.045v1.329h.045V1.545zm-.166 1.634l-.942.939.033.034.943-.939-.034-.034zm1.229.94l-.939-.94-.033.033.939.939.033-.032zm-1.25-1.051h-1.33v.046h1.33v-.046zm1.23-1.004l-.034-.032-.92.962.034.032.92-.962zm-.235-.577l-.04-.022-.646 1.166.039.022.647-1.166zm-.938 1.172l-.629-1.173-.041.021.63 1.172.04-.02zm-.317.234l-1.274-.386-.013.044 1.274.386.013-.044zm2.078.7l-1.274-.384-.014.044 1.275.384.013-.044zm-1.171-.672l1.174-.63-.021-.039-1.174.63.021.039zm-2.079.963l1.174-.63-.022-.041-1.173.63.021.041zm1.02.89l.423-1.261-.044-.015-.424 1.261.045.015zm1.123.005l.045-.014-.396-1.271-.044.014.395 1.271zm-.66-1.794l-.94-.941-.032.032.94.941.032-.032zm7.765 2.386a.032.032 0 0 0-.032-.033.032.032 0 0 0-.033.033c0 .018.014.033.033.033a.033.033 0 0 0 .032-.033zm.712-.012h-.658v.022h.658v-.022zm-.755.735h.021v-.658h-.021v.658zm.02-1.477h-.021v.659h.021v-.659zm-.084.81l-.465.464.016.016.466-.465-.017-.015zm.612.464l-.465-.466-.016.016.465.466.016-.016zm-.619-.519h-.66v.021h.66v-.021zm.613-.493l-.016-.015-.467.466.016.016.467-.467zm-.104-.28l-.021-.013-.354.558.021.013.354-.558zm-.482.57l-.311-.581-.021.011.312.581.02-.011zm-.158.115l-.63-.191-.007.022.629.191.008-.022zm1.033.349l-.633-.192-.008.022.633.192.008-.022zm-.582-.335l.582-.311-.012-.022-.582.311.012.022zm-1.03.477l.582-.312-.011-.021-.582.312.011.021zm.504.441l.211-.624-.021-.008-.21.625.02.007zm.556.004l.022-.007-.192-.631-.022.007.192.631zm-.325-.89l-.467-.466-.016.016.467.466.016-.016z" fill="#010002"/></svg>

<?xml version="1.0" encoding="iso-8859-1"?>
<!-- Generator: Adobe Illustrator 18.1.1, SVG Export Plug-In . SVG Version: 6.00 Build 0)  -->
<svg version="1.1" id="Capa_1" xmlns="http://www.w3.org/2000/svg" xmlns:xlink="http://www.w3.org/1999/xlink" x="0px" y="0px"
	 viewBox="0 0 23.992 23.992" style="enable-background:new 0 0 23.992 23.992;" xml:space="preserve">
<g>
	<path style="fill:#010002;" d="M23.992,10.512v11.604v0.41h-6.697h-2.751H7.731v-0.41v-5.865l4.734-5.738h2.079v11.604h2.751
		V10.512H23.992z M8.453,14.574l-4.352,5.243l-2.923-2.431l4.017-4.838c-0.61,0.152-1.388,0.182-2.213,0.045
		c-1.781-0.29-3.111-1.219-2.972-2.078c0.025-0.149,0.09-0.283,0.19-0.405c0.49-0.588,1.814-0.864,3.29-0.625
		c0.496,0.081,0.951,0.216,1.356,0.382C4.609,9.501,4.394,9.075,4.221,8.604c-0.507-1.409-0.48-2.76,0.009-3.35
		c0.102-0.122,0.222-0.211,0.363-0.261c0.818-0.296,1.978,0.84,2.592,2.537c0.283,0.787,0.4,1.554,0.363,2.182l4.017-4.838
		l2.925,2.428l-4.278,5.151L7.254,10l-1.758,2.119L8.453,14.574z M5.064,8.299c0.141,0.386,0.32,0.75,0.535,1.081l0.552,0.854
		l0.372,0.045c0.154-0.246,0.277-1.177-0.18-2.443C5.869,6.528,5.161,5.918,4.903,5.85C4.729,6.103,4.607,7.034,5.064,8.299z
		 M5.556,11.427l-0.119-0.353l-0.928-0.378c-0.371-0.151-0.761-0.262-1.162-0.326c-1.327-0.218-2.221,0.076-2.439,0.292
		c0.115,0.242,0.846,0.824,2.219,1.049C4.436,11.924,5.323,11.643,5.556,11.427z M20.209,7.916c0.123-0.172,0.335-0.262,0.52-0.262
		c0.019,0,0.037,0.001,0.055,0.002C21,7.68,21.148,7.751,21.243,7.877c0.094,0.123,0.124,0.291,0.089,0.5
		c-0.083,0.507-1.016,1.326-1.057,1.359c-0.017,0.015-0.039,0.022-0.062,0.022s-0.045-0.007-0.062-0.021
		c-0.041-0.034-0.982-0.852-1.066-1.36c-0.033-0.209-0.003-0.377,0.091-0.5c0.095-0.126,0.246-0.198,0.462-0.221
		c0.016-0.001,0.035-0.002,0.053-0.002C19.876,7.654,20.085,7.744,20.209,7.916z M20.678,7.837C21.162,7.91,21.2,8.455,21.2,8.455
		C21.262,7.753,20.678,7.837,20.678,7.837z M15.633,8.337c0.083-0.109,0.219-0.172,0.407-0.192c0.015,0,0.03-0.002,0.047-0.002
		c0.165,0,0.351,0.078,0.46,0.229c0.107-0.151,0.295-0.229,0.46-0.229c0.015,0,0.031,0.002,0.046,0.002
		c0.191,0.02,0.324,0.083,0.408,0.192c0.084,0.109,0.109,0.259,0.08,0.444c-0.074,0.449-0.9,1.172-0.934,1.201
		c-0.019,0.014-0.037,0.02-0.059,0.02c-0.02,0-0.04-0.005-0.056-0.018c-0.034-0.031-0.868-0.754-0.941-1.203
		C15.521,8.596,15.548,8.446,15.633,8.337z M16.961,8.304c0.43,0.065,0.461,0.549,0.461,0.549
		C17.477,8.227,16.961,8.304,16.961,8.304z M16.628,4.322c-0.058-0.347-0.007-0.63,0.149-0.835c0.158-0.207,0.412-0.328,0.77-0.365
		c0.029-0.004,0.061-0.005,0.092-0.005c0.309,0,0.66,0.151,0.866,0.434c0.204-0.283,0.558-0.434,0.868-0.434
		c0.029,0,0.061,0.001,0.09,0.005c0.357,0.037,0.61,0.158,0.768,0.365c0.158,0.205,0.209,0.488,0.151,0.835
		c-0.14,0.852-1.698,2.213-1.765,2.271c-0.03,0.026-0.069,0.04-0.107,0.04c-0.037,0-0.074-0.014-0.105-0.04
		C18.338,6.535,16.768,5.174,16.628,4.322z M19.286,3.424c0.81,0.121,0.868,1.031,0.868,1.031
		C20.258,3.282,19.287,3.424,19.286,3.424z M14.297,3.067C14.297,3.03,14.268,3,14.231,3s-0.067,0.03-0.067,0.067
		c0,0.037,0.03,0.066,0.067,0.066S14.297,3.104,14.297,3.067z M15.734,3.043h-1.332v0.046h1.332V3.043z M14.208,4.527h0.045V3.195
		h-0.045V4.527z M14.253,1.545h-0.045v1.329h0.045V1.545z M14.087,3.179l-0.942,0.939l0.033,0.034l0.943-0.939L14.087,3.179z
		 M15.316,4.119l-0.939-0.94l-0.033,0.033l0.939,0.939L15.316,4.119z M14.066,3.068h-1.33v0.046h1.33V3.068z M15.296,2.064
		l-0.034-0.032l-0.92,0.962l0.034,0.032L15.296,2.064z M15.061,1.487l-0.04-0.022l-0.646,1.166l0.039,0.022L15.061,1.487z
		 M14.123,2.659l-0.629-1.173l-0.041,0.021l0.63,1.172L14.123,2.659z M13.806,2.893l-1.274-0.386l-0.013,0.044l1.274,0.386
		L13.806,2.893z M15.884,3.593L14.61,3.209l-0.014,0.044l1.275,0.384L15.884,3.593z M14.713,2.921l1.174-0.63l-0.021-0.039
		l-1.174,0.63L14.713,2.921z M12.634,3.884l1.174-0.63l-0.022-0.041l-1.173,0.63L12.634,3.884z M13.654,4.774l0.423-1.261
		l-0.044-0.015l-0.424,1.261L13.654,4.774z M14.777,4.779l0.045-0.014l-0.396-1.271l-0.044,0.014L14.777,4.779z M14.117,2.985
		l-0.94-0.941l-0.032,0.032l0.94,0.941L14.117,2.985z M21.882,5.371c0-0.019-0.015-0.033-0.032-0.033
		c-0.02,0-0.033,0.015-0.033,0.033c0,0.018,0.014,0.033,0.033,0.033C21.867,5.404,21.882,5.389,21.882,5.371z M22.594,5.359h-0.658
		v0.022h0.658C22.594,5.381,22.594,5.359,22.594,5.359z M21.839,6.094h0.021V5.436h-0.021V6.094z M21.859,4.617h-0.021v0.659h0.021
		V4.617z M21.775,5.427L21.31,5.891l0.016,0.016l0.466-0.465L21.775,5.427z M22.387,5.891l-0.465-0.466l-0.016,0.016l0.465,0.466
		L22.387,5.891z M21.768,5.372h-0.66v0.021h0.66V5.372z M22.381,4.879l-0.016-0.015L21.898,5.33l0.016,0.016L22.381,4.879z
		 M22.277,4.599l-0.021-0.013l-0.354,0.558l0.021,0.013L22.277,4.599z M21.795,5.169l-0.311-0.581l-0.021,0.011l0.312,0.581
		L21.795,5.169z M21.637,5.284l-0.63-0.191L21,5.115l0.629,0.191L21.637,5.284z M22.67,5.633l-0.633-0.192l-0.008,0.022l0.633,0.192
		L22.67,5.633z M22.088,5.298l0.582-0.311l-0.012-0.022l-0.582,0.311L22.088,5.298z M21.058,5.775l0.582-0.312l-0.011-0.021
		l-0.582,0.312L21.058,5.775z M21.562,6.216l0.211-0.624l-0.021-0.008l-0.21,0.625L21.562,6.216z M22.118,6.22l0.022-0.007
		l-0.192-0.631l-0.022,0.007L22.118,6.22z M21.793,5.33l-0.467-0.466L21.31,4.88l0.467,0.466L21.793,5.33z"/>
</g>
<g>
</g>
<g>
</g>
<g>
</g>
<g>
</g>
<g>
</g>
<g>
</g>
<g>
</g>
<g>
</g>
<g>
</g>
<g>
</g>
<g>
</g>
<g>
</g>
<g>
</g>
<g>
</g>
<g>
</g>
</svg>
